X:1
T:Nunc Dimittis
T:For2Feb
%%score 1 { ( 2 3 ) | ( 4 5 ) }
L:1/8
Q:1/4=66
M:4/4
K:C
V:1 treble nm="S"
V:2 treble nm="O\nr\ng\na\nn\nPr.\nOy."
V:3 treble 
V:4 bass 
V:5 bass 
V:1
 A6 A2 | A2 A2 G2 E2 | (F3 G A2) A2 | (G2 E2 F3) G | A B c4 B2 | B2 A4 ^G2 | A4 z2 A2 | %7
w: 主 啊！|現 在 可 照|袮 _ _ 的|話， _ _ 放|袮 的 僕 人|平 安 去|吧！ 因|
"^A" ^G2 A4 G2 | A4 z2 A2 | ^G2 A4 G2 | A4 z2 A2- | A2 (E2 F2) (G2 | A2) E2 z2 G2 | A2 B2 (c2 B2- | %14
w: 為 我 親|眼 看|見 了 袮|在， 萬|_ 民 _ 之|_ 前 早|準 備 好 *|
 B2) (A4 ^G2) | A2 A2 z2 E2 |"^B" E2 E2 A4- | A2 (E2 F2) G G | A2 E4 G G | A2 ((B2 c2)) (G2 | %20
w: * 的 _|救 援： 為|作 啟 示|* 異 _ 邦 的|光 明， 袮 百|姓 以 _ 色|
 A2) (B2 c2) B2- | B2 (A4 ^G2) | A4 z2 A2- |"^C" A2 A2 A2 A A | (A4 G2) c2- | c2 (B2 c2) (c2 | %26
w: _ 列 _ 的|_ 榮 _|耀。 願|* 光 榮 歸 於|父、 _ 及|_ 子、 _ 及|
 B2 AG) (G2 ^F2) | G4 z2 E2- | E F G2 A2 G A | (G2 F4) (E2 | !breath!F2) C2 C D (E2 | %31
w: _ _ _ 聖 _|神， 起|* 初 如 何， 今 日|亦 _ 然，|_ 直 到 永 遠|
 F2) E2- E D (D2- | D2 ^C2) D4 | D4 D4- | D8 |] %35
w: _ 及 _ 世 之|_ _ 世。|A- men!||
V:2
[K:D]"^Closed tubes only"!ppp! A6 A2 | A2 A2 G2 E2 | =F3 (G A2) A2 | G2 E2 =F3 G | (A B =c4) B2- | %5
 B2 A4 ^G2 | A4 z2 A2 | ^G2 A4 G2 | A4 z2 A2 | ^G2 A4 G2 | A4 z2 A2- | A2 E2 =F2 G2 | A2 E2 z2 G2 | %13
 A2 B2 =c2 B2- | B2 (A4 ^G2) | A2 A2 z2 E2 | E2 E2 A4 | z2 E2 =F2 G G | A2 E4 G G | A2 B2 =c2 G2 | %20
 A2 B2 =c2 B2- | B2 A4 ^G2 | A4 z2 A2- | A2 A2 A2 A A | A4 G2 =c2 | =c2 B2 c2 c2 | %26
 B2 (A G) G2 ^F2 | G4 z2 E2- | E =F G2 A2 G A | G2 =F4 E2 | =F2 =C2 C D E2 | =F2 E2- E D D2 | %32
 D2 ^C2 D4- | D4- D4- | D8 |] %35
V:3
[K:D] D6 D2 | =C2 A,2 B,2 C2 | D4 =C2 A,2 | B,2 =C2 D4 | =F2 E3 D E2 | =C2 D2 E4 | E8 | %7
 z2 D2 ^C2 D2- | D2 ^C2 D4 | z2 D2 ^C2 D2- | D2 ^C2 D4 | z2 E2 A,2 E2- | E D B,2 E2 E2 | %13
 z2 E2 E2 E2 | E4 E2 E2 | E6 E2 | z2 E2 E2 E2 | E4 A,2 E2- | E D B,2 E2 E2 | z2 E E E2 E2 | %20
 E3 E E2 E2 | E3 E E3 E | E4 x2 =C2- | C2 =C2 A,2 D D | =C3 D E =F G2 | G2 G2 E2 E2 | D2 D2 D3 =C | %27
 B,4 x2 =C2- | C =C C2 C2 C C | =C2 C2 C4 | A,2 A,2 A, A, G,2 | =F,2 =C2- C B, A, G, | %32
 A,2 E,2 G,2 A,2 | B,4- B,2 A,2 | A,8 |] %35
V:4
[K:D]!p!!p!!mp! =F,6 F,2 | =F,2 F,2 G,2 G,2 | A,4 A,2 =F,2 | G,2 G,2 A,4 | A,2 A,4 G,2 | A,4 B,4 | %6
 A,8 | z2 =F,2 E,2 D,2 | E,4 D,4 | z2 =F,2 E,2 (D,2 | E,3) E, D,4 | z2 =C4 B,2 | A,2 G,2 =C2 B,2 | %13
 z2 G,2 A,2 B,2 | =C4 B,2 B,2 | A,6 A,2 | z2 =C2 C2 C2 | =C6 B,2 | A,2 G, G, =C2 B,2 | %19
 z2 G, G, A,2 B,2 | =C2 G,2 A,2 B,2 | =C2 C2 B,3 B, | A,4 z2 A,2- | A,2 =F,2 =C2 F, F, | %24
 (=F, G, A, B,) =C2 E2 | D2 D2 =C2 =C,2 | G,2 B,2 A,3 A, | G,4 z2 G,2- | G, G, G,2 =F,2 E, E, | %29
 G,2 A,2 G,4 | =F,2 E,2 E, E, E,2 | A,2 A,2 G,2 =F,2 | E,2 !courtesy!=C2 B,2 A,2- | %33
 A, D, G,2 ^F,4- | F,8 |] %35
V:5
[K:D] D,6 D,2 | =F,2 F,2 E,2 E,2 | D,3 E, =F,2 F,2 | E,2 E,2 D,4 | D,2 A,,4 E,2 | =F,4 E,4 | A,,8 | %7
 x2 D,2 A,,2 B,,2 | A,,4 D,4 | x2 D,2 A,,2 B,,2 | A,,3 A,, D,4 | x2 A,4 E,2 | =F,2 G,2 A,2 x2 | %13
 x2 E,2 A,,2 ^G,,2 | A,,4 E,2 E,2 | A,,6 A,,2 | x2 A,,2 A,,2 A,,2 | A,6 E,2 | =F,2 G, G, A,2 E,2 | %19
 x2 E, E, A,,2 E,2 | =C,2 E,2 A,,2 ^G,,2 | A,,2 A,,2 E,3 E, | A,,4 x2 =F,2- | F,2 =F,2 F,2 D, D, | %24
 =F,4 =C,2 C,2 | G,2 G,2 =C,2 C,2 | G,,2 G,,2 D,3 D, | G,,4 x2 =C,2- | C, D, E,2 =F,2 =C, C, | %29
 E,2 =F,2 =C,4 | =F,,2 A,,2 A,, B,, =C,2 | D,2 A,,2 =C,2 D,2 | A,,4 G,,2 ^F,,2 | G,,4 D,4- | D,8 |] %35

